X:799
T:Visa frn Venjan
S:Martin, Edinburgh
N:Denmark
Z:Nigel Gatherer
M:3/4
L:1/4
K:D
D | E2D | EED | G2F | G2B | d2c | B>AG | A2B G2 :|
B | BBB | ddB | B>AE | A2G | BAG | DEF | G2F |1 E2 :|
                                              2 E3- | E2 || 
D | E2D | EED | G2 |]
